X:172
T:You're Welcome to Broadstreet THO4.172
M:C
L:1/8
Z:vmp. Peter Dunk 2010/11.from a transcription by Fynn Titford-Mock 2007
B:Thompson's Compleat Collection of 200 Favourite Country Dances Volume IV.
Q:1/4=140
K:G
G2 c/B/A/G/ BdAF|E2 c/A/G/F/ G[BD][dB,][gG,]|\
G2 c/B/A/G/ BdAF|E2 c/A/G/F/ G2[G2G,2]:|
|:de/f/ gd ecBA|B2 c/B/A/G/ AFED|\
de/f/ gd ecBA|B2 c/B/A/G/ G2[G2G,2]:|
